img/levels/icon2.svg

<svg width="100" height="100" viewBox="0 0 100 100" fill="none" xmlns="http://www.w3.org/2000/svg">
<g clip-path="url(#clip0_206_34761)">
<path opacity="0.8" d="M100.421 50.0687C100.421 56.563 99.1579 63.0573 96.7368 69.1326C94.2105 75.1031 90.5263 80.6547 86 85.2635C81.3684 89.8724 75.8947 93.6432 69.7895 96.1571C63.7895 98.671 57.1579 100.033 50.6316 100.137C44 100.137 37.4737 98.9853 31.3684 96.4714C25.2631 93.9574 19.5789 90.2913 14.9473 85.6825C10.2105 81.0737 6.5263 75.4173 3.89472 69.3421C1.3684 63.2668 0 56.6678 0 50.0687C0 43.4697 1.3684 36.8707 3.89472 30.7954C6.42103 24.7201 10.2105 19.1686 14.9473 14.455C19.6842 9.84616 25.2631 6.18003 31.3684 3.66612C37.4737 1.15221 44.1052 0 50.6316 0C57.2631 0.104746 63.7895 1.36171 69.7895 3.98036C75.7895 6.49428 81.3684 10.2651 86 14.874C90.6316 19.4828 94.3158 25.0344 96.7368 31.0049C99.1579 37.0802 100.421 43.5745 100.421 50.0687ZM100.421 50.0687C100.421 43.5745 99.0526 37.0802 96.5263 31.1097C94 25.1391 90.3158 19.6923 85.6842 15.0835C81.0526 10.4746 75.4737 6.91326 69.4737 4.5041C63.4737 2.09493 56.9474 0.83798 50.5263 0.942726C44 1.04747 37.5789 2.30443 31.6842 4.81834C25.6842 7.33225 20.3158 10.9984 15.7895 15.6072C11.2632 20.1113 7.57894 25.5581 5.15789 31.5286C2.73684 37.3944 1.47368 43.8887 1.47368 50.2782C1.47368 56.6678 2.73684 63.0573 5.15789 69.0278C7.57894 74.9984 11.2632 80.3404 15.7895 84.9493C20.3158 89.4533 25.7894 93.2242 31.6842 95.7381C37.5789 98.2521 44.1053 99.6137 50.5263 99.6137C57.0526 99.6137 63.4737 98.4615 69.4737 96.0524C75.4737 93.6432 81.0526 89.9771 85.6842 85.473C90.3158 80.8642 94 75.4174 96.5263 69.4468C99.0526 63.0573 100.316 56.563 100.421 50.0687Z" fill="url(#paint0_linear_206_34761)"/>
<path d="M55.5455 48V42H51.9091V48H46.4545V52H51.9091V58H55.5455V52H61V48H55.5455ZM35.5455 54C39.5636 54 42.8182 50.42 42.8182 46C42.8182 41.58 39.5636 38 35.5455 38C31.5273 38 28.2727 41.58 28.2727 46C28.2727 50.42 31.5273 54 35.5455 54ZM35.5455 42C37.5455 42 39.1818 43.8 39.1818 46C39.1818 48.2 37.5455 50 35.5455 50C33.5455 50 31.9091 48.2 31.9091 46C31.9091 43.8 33.5455 42 35.5455 42ZM47.1636 59.12C44.1091 57.4 40.1455 56 35.5455 56C30.9455 56 26.9818 57.4 23.9273 59.12C22.1091 60.14 21 62.2 21 64.44V70H50.0909V64.44C50.0909 62.2 48.9818 60.14 47.1636 59.12ZM46.4545 66H24.6364V64.44C24.6364 63.68 25 63 25.5818 62.68C27.7455 61.46 31.2364 60 35.5455 60C39.8545 60 43.3455 61.46 45.5091 62.68C46.0909 63 46.4545 63.68 46.4545 64.44V66Z" fill="url(#paint1_linear_206_34761)"/>
<path d="M66.9688 43H64.5547V36.3906L64.5781 35.3047L64.6172 34.1172C64.2161 34.5182 63.9375 34.7812 63.7812 34.9062L62.4688 35.9609L61.3047 34.5078L64.9844 31.5781H66.9688V43ZM78.0625 37.2891C78.0625 39.2839 77.7344 40.7604 77.0781 41.7188C76.4271 42.6771 75.4219 43.1562 74.0625 43.1562C72.7448 43.1562 71.75 42.6615 71.0781 41.6719C70.4115 40.6823 70.0781 39.2214 70.0781 37.2891C70.0781 35.2734 70.4036 33.7891 71.0547 32.8359C71.7057 31.8776 72.7083 31.3984 74.0625 31.3984C75.3802 31.3984 76.375 31.8984 77.0469 32.8984C77.724 33.8984 78.0625 35.362 78.0625 37.2891ZM72.4766 37.2891C72.4766 38.6901 72.5964 39.6953 72.8359 40.3047C73.0807 40.9089 73.4896 41.2109 74.0625 41.2109C74.625 41.2109 75.0312 40.9036 75.2812 40.2891C75.5312 39.6745 75.6562 38.6745 75.6562 37.2891C75.6562 35.888 75.5286 34.8828 75.2734 34.2734C75.0234 33.6589 74.6198 33.3516 74.0625 33.3516C73.4948 33.3516 73.0885 33.6589 72.8438 34.2734C72.599 34.8828 72.4766 35.888 72.4766 37.2891Z" fill="url(#paint2_linear_206_34761)"/>
</g>
<defs>
<linearGradient id="paint0_linear_206_34761" x1="50.2105" y1="0" x2="50.2105" y2="100.137" gradientUnits="userSpaceOnUse">
<stop stop-color="#842637"/>
<stop offset="1" stop-color="#F53E5D"/>
</linearGradient>
<linearGradient id="paint1_linear_206_34761" x1="41" y1="38" x2="41" y2="70" gradientUnits="userSpaceOnUse">
<stop stop-color="#842637"/>
<stop offset="1" stop-color="#F53E5D"/>
</linearGradient>
<linearGradient id="paint2_linear_206_34761" x1="69.5" y1="30" x2="69.5" y2="43" gradientUnits="userSpaceOnUse">
<stop stop-color="#842637"/>
<stop offset="1" stop-color="#F53E5D"/>
</linearGradient>
<clipPath id="clip0_206_34761">
<rect width="100" height="100" fill="white"/>
</clipPath>
</defs>
</svg>

<svg width="100" height="100" fill="none" xmlns="http://www.w3.org/2000/svg"><g clip-path="url(#clip0_206_34761)"><path opacity=".8" d="M100.421 50.069c0 6.494-1.263 12.988-3.684 19.064-2.526 5.97-6.21 11.522-10.737 16.13-4.632 4.61-10.105 8.38-16.21 10.894-6 2.514-12.632 3.876-19.158 3.98-6.632 0-13.158-1.152-19.264-3.666-6.105-2.514-11.79-6.18-16.42-10.788-4.738-4.61-8.422-10.266-11.053-16.34C1.368 63.266 0 56.667 0 50.068c0-6.6 1.368-13.198 3.895-19.274C6.42 24.72 10.21 19.17 14.947 14.455A51.897 51.897 0 0131.368 3.666C37.474 1.152 44.105 0 50.632 0c6.631.105 13.157 1.362 19.158 3.98 6 2.514 11.578 6.285 16.21 10.894a48.723 48.723 0 0110.737 16.13c2.42 6.076 3.684 12.57 3.684 19.065zm0 0c0-6.495-1.368-12.989-3.895-18.96a50.253 50.253 0 00-10.842-16.026c-4.631-4.608-10.21-8.17-16.21-10.579-6-2.41-12.527-3.666-18.948-3.561C44 1.047 37.58 2.304 31.684 4.818a48.514 48.514 0 00-15.895 10.79c-4.526 4.503-8.21 9.95-10.631 15.92-2.421 5.866-3.684 12.36-3.684 18.75 0 6.39 1.263 12.78 3.684 18.75 2.42 5.97 6.105 11.312 10.631 15.921 4.527 4.504 10 8.275 15.895 10.79 5.895 2.513 12.421 3.875 18.842 3.875 6.527 0 12.948-1.153 18.948-3.562s11.579-6.075 16.21-10.579a50.253 50.253 0 0010.842-16.026c2.527-6.39 3.79-12.884 3.895-19.378z" fill="url(#paint0_linear_206_34761)"/><path d="M55.545 48v-6H51.91v6h-5.454v4h5.454v6h3.636v-6H61v-4h-5.455zm-20 6c4.019 0 7.273-3.58 7.273-8s-3.254-8-7.273-8c-4.018 0-7.272 3.58-7.272 8s3.254 8 7.272 8zm0-12c2 0 3.637 1.8 3.637 4s-1.637 4-3.637 4-3.636-1.8-3.636-4 1.636-4 3.636-4zm11.619 17.12C44.109 57.4 40.145 56 35.545 56s-8.563 1.4-11.618 3.12C22.11 60.14 21 62.2 21 64.44V70h29.09v-5.56c0-2.24-1.108-4.3-2.926-5.32zm-.71 6.88H24.637v-1.56c0-.76.364-1.44.946-1.76 2.163-1.22 5.654-2.68 9.963-2.68 4.31 0 7.8 1.46 9.964 2.68.582.32.946 1 .946 1.76V66z" fill="url(#paint1_linear_206_34761)"/><path d="M66.969 43h-2.414v-6.61l.023-1.085.04-1.188c-.402.401-.68.664-.837.79L62.47 35.96l-1.164-1.453 3.68-2.93h1.984V43zm11.094-5.71c0 1.994-.329 3.47-.985 4.429-.65.958-1.656 1.437-3.016 1.437-1.317 0-2.312-.495-2.984-1.484-.666-.99-1-2.45-1-4.383 0-2.016.326-3.5.977-4.453.65-.958 1.653-1.438 3.007-1.438 1.318 0 2.313.5 2.985 1.5.677 1 1.016 2.464 1.016 4.391zm-5.586 0c0 1.4.12 2.405.359 3.015.245.604.654.906 1.227.906.562 0 .968-.307 1.218-.922.25-.614.375-1.614.375-3 0-1.401-.127-2.406-.383-3.016-.25-.614-.653-.921-1.21-.921-.568 0-.975.307-1.22.921-.244.61-.366 1.615-.366 3.016z" fill="url(#paint2_linear_206_34761)"/></g><defs><linearGradient id="paint0_linear_206_34761" x1="50.211" y1="0" x2="50.211" y2="100.137" gradientUnits="userSpaceOnUse"><stop stop-color="#842637"/><stop offset="1" stop-color="#F53E5D"/></linearGradient><linearGradient id="paint1_linear_206_34761" x1="41" y1="38" x2="41" y2="70" gradientUnits="userSpaceOnUse"><stop stop-color="#842637"/><stop offset="1" stop-color="#F53E5D"/></linearGradient><linearGradient id="paint2_linear_206_34761" x1="69.5" y1="30" x2="69.5" y2="43" gradientUnits="userSpaceOnUse"><stop stop-color="#842637"/><stop offset="1" stop-color="#F53E5D"/></linearGradient><clipPath id="clip0_206_34761"><path fill="#fff" d="M0 0h100v100H0z"/></clipPath></defs></svg>
